X:23032
T:Well Hall
R:Triple Hornpipe
C:Trad. Playford 1679
O:England
Z:Paul Hardy's Session Tunebook 2022 (see www.paulhardy.net). Creative Commons cc by-nc-sa licenced.
M:3/2
L:1/8
Q:1/2=110
K:Em
%%MIDI beatstring fpmpmp
%%MIDI gchord czfzcz
"G"B2d2 e2d2 g2B2|"D7"A4 F4 c4|"G"B2d2 e2d2 g2a2|"Em"b8 "D"a4|"G"b2a2 g2d2 efg2|"C"e4 G4 "G"B4|"Am"A2B2 c2d2 "G"B4|"D7"c6d2 c4:|
|:"C"c2G2 A2G2 ABc2|"Am"E6c2 E4|"D"F2A2B2 A2Bcd2|"Bm"F6d2"C"c4|"G"B2d2 e2d2 g2d2|"C"e6fg "Am"a2e2|"D"f2d2 "G"B2b2 "Em"g2b2|"C"g6a2 "G"g4:|

